X: 5
M:6/8
L:1/8
K:G
d|\
gfe d2B | cBA Bcd | gfe e2d | cBA G2d |
gfe d2B | cBA GBd | gbg d2B | cBA G2:|
|:G|\


